_includes/icons/color-statue-of-liberty.svg

<svg fill="#666" height="50" viewBox="0 0 48 48" width="50" xmlns="http://www.w3.org/2000/svg"><path d="m12 15h-3c0 6 5 17 5 17 1 0 3-5 3-5-2-3-5-10-5-10 0-1.226562 0-2 0-2z" fill="#00838f"/><path d="m12 16c0 .554688-.445312 1-1 1h-3c-.554687 0-1-.445312-1-1v-1c0-.554687.445313-1 1-1h3c.554688 0 1 .445313 1 1z" fill="#00838f"/><path d="m29 25.003906s0 3.996094 1 5.996094h-12s1-1.996094 1-5.996094z" fill="#00838f"/><path d="m19 29 3 1h7s5 0 7.125 9.5c0 0 .875 3.5.875 5.5h-20l-1-3.058594z" fill="#00acc1"/><path d="m6.023438 9.480469c.105468 1.285156 1.066406 2.304687 2.316406 2.519531h2.253906c.535156-.371094 3.285156-2.597656-.59375-7 1.125 3.371094-.65625 3.453125-.625 2.4375 0-2.25-.25-3.3125-1.375-4.4375 0 2.898438-1.863281 3.007813-1.988281 6.132813-.003906.039062-.011719.082031-.011719.121093 0 .015625.003906.035157.003906.054688 0 .050781-.003906.09375-.003906.148437z" fill="#ffc107"/><g fill="#0097a7"><path d="m14.058594 37.988281c.132812 1.21875.5625 3.28125 1.941406 3.953125 2 .976563 3-10.730468 3-12.683593 0-.070313-.007812-.125-.019531-.164063-.214844.921875-2.128906 8.78125-4.921875 8.894531z"/><path d="m30 45h6c0-.011719.050781-2.808594.074219-5.699219-.371094-1.589843-.816406-2.910156-1.3125-4.003906l-2.761719 5.132813s-.125-2.25-1.3125-4.222657c.699219 2.941407-.503906 6.722657-.667969 7.222657z"/><path d="m39 45 3-6-1-1-3.539062 7z"/><path d="m24 18c.386719 0 .75.03125 1.09375.085938l-1.09375-5.085938-1.09375 5.074219c.34375-.046875.707031-.074219 1.09375-.074219z"/><path d="m20.039063 19.535156c.453125-.550781 1.03125-.96875 1.777343-1.21875l-3.539062-3.316406z"/><path d="m34 24.003906-5-.992187c0-.003906 0-.007813 0-.011719 0 .597656-.363281 1.542969-1.074219 2.214844z"/><path d="m28.335938 20.199219c.332031.585937.527343 1.277344.609375 2.046875l4.035156-3.640625z"/><path d="m27.933594 19.625c-.003906-.003906-.003906-.003906-.007813-.007812l1.796875-4.617188-3.574218 3.351563c.746093.273437 1.328125.714843 1.785156 1.273437z"/><path d="m19.609375 20.179688-4.589844-1.574219 4.03125 3.636719c.070313-.800782.257813-1.488282.558594-2.0625z"/><path d="m19.003906 23.019531-3.835937.753907c.089844.171875.179687.347656.269531.519531l4.664063.9375c-.609375-.496094-1.09375-1.234375-1.097657-2.210938z"/><path d="m22 26c-1 0-3-.996094-3-3 0-3.3125 1.6875-5 5-5s5 2 5 5c0 1-1 3-3 3z"/></g><path d="m21 26.003906c-2-2-1-7.003906 3-7.003906s5 5.003906 3 7z" fill="#006064"/><path d="m26 27.40625h-4v2.667969s.113281 1.925781 1.996094 1.925781c1.886719 0 2.003906-1.925781 2.003906-1.925781z" fill="#006064"/><g fill="#00bcd4"><path d="m13 13.003906c0 .550782-.445312 1-1 1h-5c-.554687 0-1-.449218-1-1v-1.003906h7z"/><path d="m17 26c-.246094-.121094-.492187-.183594-.734375-.199219.253906.441407.5.847657.734375 1.199219 0 0-2 5-3 5 0 0-.570312-1.257812-1.324219-3.148437-.570312 1.511718-1.675781 4.660156-1.675781 6.148437 0 0 1 3 3 3 3 0 5-9 5-9s0-2-2-3z"/><path d="m8.429688 17 .570312 4h1l.570313-4z"/><path d="m27 24c0-2.207031-1.34375-3-3-3s-3 .792969-3 3v1c0 2.203125 1.34375 4 3 4s3-1.796875 3-4c0-.171875 0-.828125 0-1z"/><path d="m24 18c-3.3125 0-5 1.6875-5 5 0 1.28125.816406 2.144531 1.671875 2.605469-1.539062-2.191406-.429687-6.605469 3.328125-6.605469 3.8125 0 4.894531 4.539063 3.253906 6.695313 1.160157-.59375 1.746094-1.933594 1.746094-2.695313 0-3-1.6875-5-5-5z"/></g><path d="m41 38-5-2-4 7.289063v1.710937h5.460938z" fill="#4dd0e1"/></svg>

<svg xmlns="http://www.w3.org/2000/svg" viewBox="0 0 48 48" width="50" height="50" fill="#666"><path d="M 12 15 L 9 15 C 9 21 14 32 14 32 C 15 32 17 27 17 27 C 15 24 12 17 12 17 C 12 15.773438 12 15 12 15 Z" fill="#00838f"/><path d="M 12 16 C 12 16.554688 11.554688 17 11 17 L 8 17 C 7.445313 17 7 16.554688 7 16 L 7 15 C 7 14.445313 7.445313 14 8 14 L 11 14 C 11.554688 14 12 14.445313 12 15 Z" fill="#00838f"/><path d="M 29 25.003906 C 29 25.003906 29 29 30 31 L 18 31 C 18 31 19 29.003906 19 25.003906 Z" fill="#00838f"/><path d="M 19 29 L 22 30 L 29 30 C 29 30 34 30 36.125 39.5 C 36.125 39.5 37 43 37 45 L 17 45 L 16 41.941406 Z" fill="#00acc1"/><path d="M 6.023438 9.480469 C 6.128906 10.765625 7.089844 11.785156 8.339844 12 L 10.59375 12 C 11.128906 11.628906 13.878906 9.402344 10 5 C 11.125 8.371094 9.34375 8.453125 9.375 7.4375 C 9.375 5.1875 9.125 4.125 8 3 C 8 5.898438 6.136719 6.007813 6.011719 9.132813 C 6.007813 9.171875 6 9.214844 6 9.253906 C 6 9.269531 6.003906 9.289063 6.003906 9.308594 C 6.003906 9.359375 6 9.402344 6 9.457031 Z" fill="#ffc107"/><path d="M 14.058594 37.988281 C 14.191406 39.207031 14.621094 41.269531 16 41.941406 C 18 42.917969 19 31.210938 19 29.257813 C 19 29.1875 18.992188 29.132813 18.980469 29.09375 C 18.765625 30.015625 16.851563 37.875 14.058594 37.988281 Z" fill="#0097a7"/><path d="M 30 45 L 36 45 C 36 44.988281 36.050781 42.191406 36.074219 39.300781 C 35.703125 37.710938 35.257813 36.390625 34.761719 35.296875 L 32 40.429688 C 32 40.429688 31.875 38.179688 30.6875 36.207031 C 31.386719 39.148438 30.183594 42.929688 30.019531 43.429688 Z" fill="#0097a7"/><path d="M 39 45 L 42 39 L 41 38 L 37.460938 45 Z" fill="#0097a7"/><path d="M 24 18 C 24.386719 18 24.75 18.03125 25.09375 18.085938 L 24 13 L 22.90625 18.074219 C 23.25 18.027344 23.613281 18 24 18 Z" fill="#0097a7"/><path d="M 20.039063 19.535156 C 20.492188 18.984375 21.070313 18.566406 21.816406 18.316406 L 18.277344 15 Z" fill="#0097a7"/><path d="M 34 24.003906 L 29 23.011719 C 29 23.007813 29 23.003906 29 23 C 29 23.597656 28.636719 24.542969 27.925781 25.214844 Z" fill="#0097a7"/><path d="M 28.335938 20.199219 C 28.667969 20.785156 28.863281 21.476563 28.945313 22.246094 L 32.980469 18.605469 L 28.335938 20.199219 C 28.339844 20.199219 28.335938 20.199219 28.335938 20.199219 Z" fill="#0097a7"/><path d="M 27.933594 19.625 C 27.929688 19.621094 27.929688 19.621094 27.925781 19.617188 L 29.722656 15 L 26.148438 18.351563 C 26.894531 18.625 27.476563 19.066406 27.933594 19.625 Z" fill="#0097a7"/><path d="M 19.609375 20.179688 L 15.019531 18.605469 L 19.050781 22.242188 C 19.121094 21.441406 19.308594 20.753906 19.609375 20.179688 Z" fill="#0097a7"/><path d="M 19.003906 23.019531 L 15.167969 23.773438 C 15.257813 23.945313 15.347656 24.121094 15.4375 24.292969 L 20.101563 25.230469 C 19.492188 24.734375 19.007813 23.996094 19.003906 23.019531 Z" fill="#0097a7"/><path d="M 22 26 C 21 26 19 25.003906 19 23 C 19 19.6875 20.6875 18 24 18 C 27.3125 18 29 20 29 23 C 29 24 28 26 26 26 Z" fill="#0097a7"/><path d="M 21 26.003906 C 19 24.003906 20 19 24 19 C 28 19 29 24.003906 27 26 Z" fill="#006064"/><path d="M 26 27.40625 L 22 27.40625 L 22 30.074219 C 22 30.074219 22.113281 32 23.996094 32 C 25.882813 32 26 30.074219 26 30.074219 Z" fill="#006064"/><path d="M 13 13.003906 C 13 13.554688 12.554688 14.003906 12 14.003906 L 7 14.003906 C 6.445313 14.003906 6 13.554688 6 13.003906 L 6 12 L 13 12 Z" fill="#00bcd4"/><path d="M 17 26 C 16.753906 25.878906 16.507813 25.816406 16.265625 25.800781 C 16.519531 26.242188 16.765625 26.648438 17 27 C 17 27 15 32 14 32 C 14 32 13.429688 30.742188 12.675781 28.851563 C 12.105469 30.363281 11 33.511719 11 35 C 11 35 12 38 14 38 C 17 38 19 29 19 29 C 19 29 19 27 17 26 Z" fill="#00bcd4"/><path d="M 8.429688 17 L 9 21 L 10 21 L 10.570313 17 Z" fill="#00bcd4"/><path d="M 27 24 C 27 21.792969 25.65625 21 24 21 C 22.34375 21 21 21.792969 21 24 C 21 24.171875 21 24.828125 21 25 C 21 27.203125 22.34375 29 24 29 C 25.65625 29 27 27.203125 27 25 C 27 24.828125 27 24.171875 27 24 Z" fill="#00bcd4"/><path d="M 24 18 C 20.6875 18 19 19.6875 19 23 C 19 24.28125 19.816406 25.144531 20.671875 25.605469 C 19.132813 23.414063 20.242188 19 24 19 C 27.8125 19 28.894531 23.539063 27.253906 25.695313 C 28.414063 25.101563 29 23.761719 29 23 C 29 20 27.3125 18 24 18 Z" fill="#00bcd4"/><path d="M 41 38 L 36 36 L 32 43.289063 L 32 45 L 37.460938 45 Z" fill="#4dd0e1"/></svg>
